img/fashion.svg

<svg xmlns="http://www.w3.org/2000/svg" viewBox="0 0 413.985 413.985" enable-background="new 0 0 413.985 413.985"><path d="M221.463 117.804l59.332-55.337c1.852-1.727 2.42-4.43 1.42-6.756l-22.377-52.079c-.728-1.697-2.199-2.964-3.986-3.434-1.786-.47-3.689-.091-5.16 1.028l-8.804 6.7-.015.012-34.882 26.547-43.699-33.259c-1.47-1.119-3.372-1.498-5.16-1.028-1.786.47-3.257 1.737-3.986 3.434l-22.378 52.078c-1 2.326-.432 5.029 1.42 6.756l59.332 55.337c-75.086 7.299-133.973 70.767-133.973 147.734 0 81.854 66.592 148.447 148.444 148.447 81.854 0 148.446-66.593 148.446-148.447.001-76.967-58.886-140.435-133.974-147.733zm-28.288-78.754l-22.767 5.243 2.737-20.487 20.03 15.244zm47.662-15.244l2.738 20.487-22.768-5.243 20.03-15.244zm.388 32.26l-28.233 45.846v-52.348l28.233 6.502zm-40.233-6.502v52.347l-28.233-45.845 28.233-6.502zm52.577 9.345l10.784 2.484-28.934 26.985 18.15-29.469zm12.95-9.332l-10.452-2.407-4.24-31.728.02-.015 14.672 34.15zm-104.381-34.149l.019.014-4.239 31.728-10.453 2.407 14.673-34.149zm-12.508 45.964l10.785-2.484 18.15 29.469-28.935-26.985zm57.362 340.593c-75.235 0-136.444-61.209-136.444-136.447 0-75.234 61.209-136.441 136.444-136.441 75.236 0 136.446 61.207 136.446 136.441 0 75.238-61.21 136.447-136.446 136.447zm0-254.341c-65.009 0-117.897 52.888-117.897 117.894 0 65.012 52.889 117.9 117.897 117.9s117.898-52.889 117.898-117.9c-.001-65.006-52.89-117.894-117.898-117.894zm0 223.794c-58.392 0-105.897-47.506-105.897-105.9 0-58.39 47.506-105.894 105.897-105.894s105.898 47.504 105.898 105.894c-.001 58.395-47.507 105.9-105.898 105.9z"/></svg>

<?xml version="1.0" encoding="iso-8859-1"?>
<!-- Generator: Adobe Illustrator 18.0.0, SVG Export Plug-In . SVG Version: 6.00 Build 0)  -->
<!DOCTYPE svg PUBLIC "-//W3C//DTD SVG 1.1//EN" "http://www.w3.org/Graphics/SVG/1.1/DTD/svg11.dtd">
<svg version="1.1" id="Capa_1" xmlns="http://www.w3.org/2000/svg" xmlns:xlink="http://www.w3.org/1999/xlink" x="0px" y="0px"
	 viewBox="0 0 413.985 413.985" style="enable-background:new 0 0 413.985 413.985;" xml:space="preserve">
<g>
	<path d="M221.463,117.804l59.332-55.337c1.852-1.727,2.42-4.43,1.42-6.756L259.838,3.632c-0.728-1.697-2.199-2.964-3.986-3.434
		c-1.786-0.47-3.689-0.091-5.16,1.028l-8.804,6.7c-0.005,0.003-0.01,0.008-0.015,0.012l-34.882,26.547L163.292,1.226
		c-1.47-1.119-3.372-1.498-5.16-1.028c-1.786,0.47-3.257,1.737-3.986,3.434L131.768,55.71c-1,2.326-0.432,5.029,1.42,6.756
		l59.332,55.337c-75.086,7.299-133.973,70.767-133.973,147.734c0,81.854,66.592,148.447,148.444,148.447
		c81.854,0,148.446-66.593,148.446-148.447C355.438,188.57,296.551,125.102,221.463,117.804z M193.175,39.05l-22.767,5.243
		l2.737-20.487L193.175,39.05z M240.837,23.806l2.738,20.487l-22.768-5.243L240.837,23.806z M241.225,56.066l-28.233,45.846V49.564
		L241.225,56.066z M200.992,49.564v52.347l-28.233-45.845L200.992,49.564z M253.569,58.909l10.784,2.484l-28.934,26.985
		L253.569,58.909z M266.519,49.577l-10.452-2.407l-4.24-31.728l0.02-0.015L266.519,49.577z M162.138,15.428l0.019,0.014
		l-4.239,31.728l-10.453,2.407L162.138,15.428z M149.63,61.392l10.785-2.484l18.15,29.469L149.63,61.392z M206.992,401.985
		c-75.235,0-136.444-61.209-136.444-136.447c0-75.234,61.209-136.441,136.444-136.441c75.236,0,136.446,61.207,136.446,136.441
		C343.438,340.776,282.228,401.985,206.992,401.985z"/>
	<path d="M206.992,147.644c-65.009,0-117.897,52.888-117.897,117.894c0,65.012,52.889,117.9,117.897,117.9
		s117.898-52.889,117.898-117.9C324.889,200.532,272,147.644,206.992,147.644z M206.992,371.438
		c-58.392,0-105.897-47.506-105.897-105.9c0-58.39,47.506-105.894,105.897-105.894s105.898,47.504,105.898,105.894
		C312.889,323.933,265.383,371.438,206.992,371.438z"/>
</g>
<g>
</g>
<g>
</g>
<g>
</g>
<g>
</g>
<g>
</g>
<g>
</g>
<g>
</g>
<g>
</g>
<g>
</g>
<g>
</g>
<g>
</g>
<g>
</g>
<g>
</g>
<g>
</g>
<g>
</g>
</svg>
